src/assets/hops.svg

<svg xmlns="http://www.w3.org/2000/svg" viewBox="0 0 100 100"><path d="M11.011 56.646c-1.097.004-2.046.848-1.917 2.081C11.255 79.2 29.06 94.998 48.035 94.998c-.996-20.119-16.912-36.394-37.024-38.352zm31.864-20.921a55.124 55.124 0 0 1 5.781-6.729 1.913 1.913 0 0 1 2.689 0 55.182 55.182 0 0 1 5.78 6.728c2.063-2.894 4.363-5.584 6.921-8.008-2.615-8.14-6.966-15.706-12.716-22.147-.746-.734-1.856-.795-2.659 0-5.751 6.442-10.102 14.009-12.715 22.148 2.555 2.424 4.857 5.115 6.919 8.008zm-10.05 24.979a54.566 54.566 0 0 1 7.772-21.615c-.001-.002-.006-.004-.008-.008-4.964-7.387-11.744-13.286-19.73-17.279-1.151-.484-2.119.252-2.444.952a50.51 50.51 0 0 0-.229 31.228 45.03 45.03 0 0 1 14.639 6.722zm30.791 2.757A50.862 50.862 0 0 0 50 33.097a50.855 50.855 0 0 0-13.615 30.364c6.341 5.44 11.128 12.599 13.613 20.739 2.484-8.14 7.276-15.299 13.618-20.739zm-4.213-24.372a54.543 54.543 0 0 1 7.771 21.615 45.012 45.012 0 0 1 14.639-6.722 50.493 50.493 0 0 0-.225-31.22c-.488-1.065-1.67-1.285-2.443-.962-7.988 3.993-14.769 9.893-19.734 17.281-.002.004-.006.005-.008.008zm29.583 17.559C68.874 58.606 52.958 74.881 51.963 95c18.976 0 36.779-15.798 38.94-36.271.129-1.233-.82-2.077-1.917-2.081z"/></svg>

<svg xmlns="http://www.w3.org/2000/svg" xmlns:xlink="http://www.w3.org/1999/xlink" version="1.1" x="0px" y="0px" viewBox="0 0 100 100" enable-background="new 0 0 100 100" xml:space="preserve"><g><g><path d="M11.011,56.646c-1.097,0.004-2.046,0.848-1.917,2.081C11.255,79.2,29.06,94.998,48.035,94.998    C47.039,74.879,31.123,58.604,11.011,56.646z M42.875,35.725c1.735-2.377,3.659-4.633,5.781-6.729    c0.746-0.736,1.942-0.736,2.689,0c2.122,2.096,4.045,4.352,5.78,6.728c2.063-2.894,4.363-5.584,6.921-8.008    C61.431,19.576,57.08,12.01,51.33,5.569c-0.746-0.734-1.856-0.795-2.659,0c-5.751,6.442-10.102,14.009-12.715,22.148    C38.511,30.141,40.813,32.832,42.875,35.725z M32.825,60.704c1.029-7.698,3.689-15.057,7.772-21.615    c-0.001-0.002-0.006-0.004-0.008-0.008c-4.964-7.387-11.744-13.286-19.73-17.279c-1.151-0.484-2.119,0.252-2.444,0.952    c-3.362,10.12-3.464,21.027-0.229,31.228C23.511,55.341,28.451,57.651,32.825,60.704z M63.616,63.461    C62.611,52.12,57.837,41.435,50,33.097c-7.836,8.338-12.612,19.023-13.615,30.364c6.341,5.44,11.128,12.599,13.613,20.739    C52.482,76.06,57.274,68.901,63.616,63.461z M59.403,39.089c4.084,6.557,6.742,13.917,7.771,21.615    c4.373-3.053,9.313-5.363,14.639-6.722c3.235-10.197,3.136-21.101-0.225-31.22c-0.488-1.065-1.67-1.285-2.443-0.962    c-7.988,3.993-14.769,9.893-19.734,17.281C59.409,39.085,59.405,39.086,59.403,39.089z M88.986,56.648    C68.874,58.606,52.958,74.881,51.963,95c18.976,0,36.779-15.798,38.94-36.271C91.032,57.496,90.083,56.652,88.986,56.648z"></path></g></g></svg>
